X:1
T:Enter by the Door
T:Enter by the Door
T:Barney E. Warren, pub.1911
T:B. E. W., pub.1911
T:PUBLIC DOMAIN
C:Barney E. Warren, pub.1911
Z:B. E. W., pub.1911
Z:PUBLIC DOMAIN
%%score ( 1 2 3 ) 4
L:1/8
Q:1/4=90
M:4/4
K:Db
V:1 treble nm="Treble"
V:2 treble 
V:3 treble 
V:4 bass nm="Bass"
V:1
 z8 | z8 | z8 | z8 | z8 | z8 | z8 | z8 ||"^Refrain" [DF]3 [FA] [EG]2 [GB]2 | [FA]3 [EG] [DF]4 | %10
w: ||||||||Let me en- ter|by the door,|
 [FA]3 [Ac] [GB]2 [Bd]2 | [Ac]3 [=GB] A4 | [Af]3 [Ad] (e d) [GB]2 | [FA]6 z2 | %14
w: Let me en- ter|by the door,|Let me en- _ ter|in;|
 [FA] [FA] z2 [GB] [GB] z2 | [=Gc] [Gc] [Ad] [Be] [Af]2 [_Ge]2 | [Fd]6 z2 |] %17
w: En- ter, en- ter,|En- ter in through Christ the|door.|
V:2
 F3 D G2 F2 | E2 F2 D2 A,2 | D3 B, E2 D2 | G2 F2 E4 | F3 D G2 F2 | E2 F2 D2 A,2 | D3 B, E2 D2 | %7
w: 1.~Bless- ed Je- sus,|I am bring- ing|All to Thee for-|ev- er- more;|To Thy cross my|hope is cling- ing,|Let me en- ter|
w: 2.~Sin- ful things I|come for- sak- ing,|Thy for- give- ness|I im- plore;|Oh, my heart with|sin is break- ing,|Let me en- ter|
w: 3.~Ho- ly One, I’ve|sinned a- gainst Thee,|Yet I count Thy|mer- cies o’er;|Free- ly par- don|now and bless me,|Let me en- ter|
w: 4.~As I come so|weak and wea- ry,|Lord, my help- less|soul re- store;|All my life is|sad and drear- y;|Let me en- ter|
 F2 E2 D4 || x8 | x8 | x8 | z4 A4 | z4 G2 z2 | x8 | x8 | x8 | x8 |] %17
w: by the door.||||||||||
w: by the door.||||||||||
w: by the door.||||||||||
w: by the door.||||||||||
V:3
 x8 | x8 | x8 | x8 | x8 | x8 | x8 | x8 || x8 | x8 | x8 | z4 E F _G2 | x8 | x8 | x8 | x8 | x8 |] %17
V:4
 A,3 F, B,2 A,2 | G,2 A,2 F,2 F,2 | F,3 D, G,2 F,2 | B,2 A,2 G,4 | A,3 F, B,2 A,2 | %5
w: |||||
 G,2 A,2 F,2 F,2 | F,3 D, G,2 F,2 | A,2 G,2 F,4 || z8 | %9
w: ||||
 [D,D] [D,D] [A,,D] [A,,A,] [D,A,] [D,A,] [D,A,]2 | z8 | %11
w: Let me en- ter by the door,||
 [E,A,] [E,A,] [E,D] [E,D] [A,,C] [A,,C] [A,,C]2 | [D,D]3 [E,_C] [G,B,]2 [G,D]2 | %13
w: Let me en- ter by the door,||
 [D,D] [D,D] [F,D] [A,D] [D,D]2 z2 | [D,D] [D,D] z2 [G,D] [G,D] z2 | %15
w: Let me en- ter in;||
 [E,E] [E,E] [F,D] [G,D] [A,D]2 [A,,A,]2 | [D,A,]6 z2 |] %17
w: ||

